X:11
T:Lichtmann 11
C:G. Linley
M:3/4
L:1/8
Q:"Moderato" 1/4=88
K:G
"_mp legato"D2|(B3AG2)|G4(FG)|(A2GF) ED|(D2G3)A|B2B3B|d4 (cB)|
A2B2G2|A4D2|(B3AG2)|G4 (FG)|(A2GF) ED|(D2G3) A|(B2G3)c|(B2G2) E2|
D2 (EG BA)|G4d2|(ed) cB AG|G4 GG|G2 (G2A2)|(BG3)zD|E4 (FG)|
G4 A2|B2 ("_rit."cB) AG|HE4 z"_a tempo"D|(B3AG2)|G4 (FG)|(A2GF) ((3FED)|(DG3) A2|
(B2G2) c2|(B2G2) E2|D2 (EF) ((3GAB)|c4(Bc)|(ed) cB AG|(dc) BA GE|D2 ("_rit."EG) (B>A)|G4|]

